breeze-extra-gnome/status/22/input-keyboard-virtual-off.svg

<?xml version="1.0" encoding="UTF-8" standalone="no"?>
<svg
   xmlns:dc="http://purl.org/dc/elements/1.1/"
   xmlns:cc="http://creativecommons.org/ns#"
   xmlns:rdf="http://www.w3.org/1999/02/22-rdf-syntax-ns#"
   xmlns:svg="http://www.w3.org/2000/svg"
   xmlns="http://www.w3.org/2000/svg"
   xmlns:sodipodi="http://sodipodi.sourceforge.net/DTD/sodipodi-0.dtd"
   xmlns:inkscape="http://www.inkscape.org/namespaces/inkscape"
   height="22"
   width="22"
   version="1.1"
   id="svg7"
   sodipodi:docname="input-keyboard-virtual-off.svg"
   inkscape:version="0.92.1 r15371">
  <metadata
     id="metadata11">
    <rdf:RDF>
      <cc:Work
         rdf:about="">
        <dc:format>image/svg+xml</dc:format>
        <dc:type
           rdf:resource="http://purl.org/dc/dcmitype/StillImage" />
        <dc:title />
      </cc:Work>
    </rdf:RDF>
  </metadata>
  <sodipodi:namedview
     pagecolor="#ffffff"
     bordercolor="#666666"
     borderopacity="1"
     objecttolerance="10"
     gridtolerance="10"
     guidetolerance="10"
     inkscape:pageopacity="0"
     inkscape:pageshadow="2"
     inkscape:window-width="1600"
     inkscape:window-height="808"
     id="namedview9"
     showgrid="false"
     inkscape:zoom="10.727273"
     inkscape:cx="-8.063559"
     inkscape:cy="11"
     inkscape:window-x="0"
     inkscape:window-y="0"
     inkscape:window-maximized="1"
     inkscape:current-layer="svg7" />
  <defs
     id="defs3">
    <style
       type="text/css"
       id="current-color-scheme">
   .ColorScheme-Text { color:#cbcbcb; } .ColorScheme-Highlight { color:#3daee9; }
  </style>
  </defs>
  <path
     inkscape:connector-curvature="0"
     id="path4211"
     class="ColorScheme-Text"
     d="m 13,3.0000001 v 1 1 c 0,0.554 -0.446,1 -1,1 -1.108,0 -2,0.8919999 -2,2 H 1.9999999 V 19 H 20 V 8.0000001 h -9 c 0,-0.554 0.446,-1 1,-1 1.108,0 2,-0.892 2,-2 v -1 -1 z M 2.9999999,9 H 10 h 1 8 v 1 H 2.9999999 Z m 0,2 H 19 v 7 h -4 -8.0000001 -4 z m 1,1 v 1 h 2 v -1 z m 3,0 v 1 H 9.0000001 V 12 Z M 10,12 v 1 h 2 v -1 z m 3,0 v 1 h 2 v -1 z m 3,0 v 1 h 2 V 12 Z M 3.9999999,14 v 1 h 2 v -1 z m 3,0 v 1 H 9.0000001 V 14 Z M 10,14 v 1 h 2 v -1 z m 3,0 v 1 h 2 v -1 z m 3,0 v 1 h 2 V 14 Z M 3.9999999,16 v 1 h 2 v -1 z m 3,0 v 1 H 15 V 16 Z M 16,16 v 1 h 2 v -1 z"
     style="color:#cbcbcb;fill:#cbcbcb;fill-opacity:1;stroke:none;opacity:0.5" />
</svg>

<svg xmlns="http://www.w3.org/2000/svg" viewBox="0 0 22 22">
  <defs id="defs3051">
    <style type="text/css" id="current-color-scheme">
      .ColorScheme-Text {
        color:#cecfce;
      }
      .ColorScheme-NegativeText {
        color:#da4453;
      }
      </style>
  </defs>
  <path 
     style="fill:currentColor;fill-opacity:1;stroke:none" 
     d="M 2 8 L 2 19 L 20 19 L 20 8 L 2 8 z M 3 9 L 10 9 L 11 9 L 19 9 L 19 10 L 3 10 L 3 9 z M 3 11 L 19 11 L 19 18 L 15 18 L 7 18 L 3 18 L 3 11 z M 4 12 L 4 13 L 6 13 L 6 12 L 4 12 z M 7 12 L 7 13 L 9 13 L 9 12 L 7 12 z M 10 12 L 10 13 L 12 13 L 12 12 L 10 12 z M 13 12 L 13 13 L 15 13 L 15 12 L 13 12 z M 16 12 L 16 13 L 18 13 L 18 12 L 16 12 z M 4 14 L 4 15 L 6 15 L 6 14 L 4 14 z M 7 14 L 7 15 L 9 15 L 9 14 L 7 14 z M 10 14 L 10 15 L 12 15 L 12 14 L 10 14 z M 13 14 L 13 15 L 15 15 L 15 14 L 13 14 z M 16 14 L 16 15 L 18 15 L 18 14 L 16 14 z M 4 16 L 4 17 L 6 17 L 6 16 L 4 16 z M 7 16 L 7 17 L 15 17 L 15 16 L 7 16 z M 16 16 L 16 17 L 18 17 L 18 16 L 16 16 z "
     class="ColorScheme-Text"/>
  <path
     style="fill:currentColor;fill-opacity:1;stroke:none" 
     d="M 15.707031 2 L 15 2.7070312 L 16.792969 4.5 L 15 6.2929688 L 15.707031 7 L 17.5 5.2070312 L 19.292969 7 L 20 6.2929688 L 18.207031 4.5 L 20 2.7070312 L 19.292969 2 L 17.5 3.7929688 L 15.707031 2 z "
     class="ColorScheme-NegativeText"
     />
</svg>
